brandFactory_export/2.Regular/Eliminar_papelera_2Regular.svg

<?xml version="1.0" encoding="UTF-8"?>
<svg width="24px" height="24px" viewBox="0 0 24 24" version="1.1" xmlns="http://www.w3.org/2000/svg" xmlns:xlink="http://www.w3.org/1999/xlink">
    <title>2.Regular/Eliminar_papelera_2Regular</title>
    <g id="Symbols" stroke="none" stroke-width="1" fill="none" fill-rule="evenodd">
        <g id="2.Regular/Eliminar_papelera_2Regular" fill="#5CB615" fill-rule="nonzero">
            <path d="M19.7109244,19.7445378 L19.7109244,6.41008403 L3.91260504,6.41008403 L3.91260504,19.7647059 C3.9092437,19.8184874 3.85882353,20.8773109 4.51092437,21.5663866 C4.91764706,21.9966387 5.5394958,22.2117647 6.36302521,22.2117647 L17.2470588,22.2117647 C17.287395,22.2117647 18.3731092,22.2420168 19.0756303,21.5630252 C19.4991597,21.1529412 19.7109244,20.5411765 19.7109244,19.7445378 L19.7109244,19.7445378 Z M7.60336134,2.78991597 L7.60336134,4.96470588 L16.0168067,4.96470588 L16.0168067,2.8 C16.0268908,2.57815126 15.9932773,2.04705882 15.707563,1.7512605 C15.5361345,1.56638655 15.2773109,1.4789916 14.9176471,1.4789916 L8.69243697,1.48235294 C8.62521008,1.4789916 8.21848739,1.45546218 7.9394958,1.71092437 C7.71764706,1.91932773 7.60336134,2.28235294 7.60336134,2.78991597 Z M22.9008403,4.96806723 C23.3008403,4.96806723 23.6235294,5.2907563 23.6235294,5.6907563 C23.6235294,6.0907563 23.3008403,6.41344538 22.9008403,6.41344538 L21.1529412,6.41344538 L21.1529412,19.7478992 C21.1529412,20.9579832 20.7865546,21.9226891 20.0638655,22.6151261 C19.0386555,23.5966387 17.6403361,23.6605042 17.2907563,23.6605042 C17.2470588,23.6605042 17.2201681,23.6605042 17.2134454,23.6571429 L6.36302521,23.6571429 C5.11932773,23.6571429 4.13781513,23.2840336 3.45210084,22.5445378 C2.37310924,21.3915966 2.47058824,19.7815126 2.47394958,19.7142857 L2.47058824,6.41008403 L0.722689076,6.41008403 C0.322689076,6.41008403 0,6.08739496 0,5.68739496 C0,5.28739496 0.322689076,4.96470588 0.722689076,4.96470588 L6.16134454,4.96470588 L6.16134454,2.78991597 C6.16134454,1.8487395 6.43697479,1.12268908 6.98151261,0.631932773 C7.72436975,-0.0403361345 8.65882353,0.0268907563 8.76302521,0.0403361345 L14.9176471,0.0336134454 C15.8823529,0.0336134454 16.4571429,0.433613445 16.7663866,0.769747899 C17.5226891,1.57983193 17.4655462,2.72268908 17.4588235,2.85042017 L17.4621849,4.96470588 L22.9008403,4.96470588 L22.9008403,4.96806723 Z M9.34789916,18.7361345 C8.94789916,18.7361345 8.62521008,18.4134454 8.62521008,18.0134454 L8.62521008,10.6184874 C8.62521008,10.2184874 8.94789916,9.89579832 9.34789916,9.89579832 C9.74453782,9.89579832 10.0705882,10.2184874 10.0705882,10.6184874 L10.0705882,18.0134454 C10.0672269,18.4134454 9.74453782,18.7361345 9.34789916,18.7361345 Z M14.2756303,18.7361345 C13.8756303,18.7361345 13.5529412,18.4134454 13.5529412,18.0134454 L13.5529412,10.6184874 C13.5529412,10.2184874 13.8756303,9.89579832 14.2756303,9.89579832 C14.6722689,9.89579832 14.9983193,10.2184874 14.9983193,10.6184874 L14.9983193,18.0134454 C14.9983193,18.4134454 14.6756303,18.7361345 14.2756303,18.7361345 Z" id="Eliminar_papelera_2Regular"></path>
        </g>
    </g>
</svg>

<svg width="24" height="24" viewBox="0 0 24 24" xmlns="http://www.w3.org/2000/svg"><path d="M19.71 19.745V6.41H3.914v13.355c-.004.053-.054 1.112.598 1.801.407.43 1.028.646 1.852.646h10.884c.04 0 1.126.03 1.829-.649.423-.41.635-1.022.635-1.818zM7.604 2.79v2.175h8.414V2.8c.01-.222-.024-.753-.31-1.049-.17-.185-.43-.272-.79-.272l-6.225.003c-.067-.003-.474-.027-.753.229-.221.208-.336.571-.336 1.079zm15.298 2.178a.722.722 0 110 1.445h-1.748v13.335c0 1.21-.366 2.175-1.09 2.867-1.024.982-2.423 1.046-2.772 1.046-.044 0-.07 0-.078-.004H6.363c-1.244 0-2.225-.373-2.91-1.112-1.08-1.153-.982-2.763-.98-2.83L2.472 6.41H.723a.722.722 0 110-1.445H6.16V2.79c0-.941.276-1.667.82-2.158C7.725-.04 8.66.027 8.764.04l6.155-.006c.964 0 1.54.4 1.848.736.757.81.7 1.953.693 2.08l.003 2.115h5.439v.003zM9.348 18.736a.722.722 0 01-.723-.723v-7.395a.722.722 0 111.446 0v7.395a.726.726 0 01-.723.723zm4.928 0a.722.722 0 01-.723-.723v-7.395a.722.722 0 111.445 0v7.395c0 .4-.322.723-.722.723z" fill="#5CB615" fill-rule="nonzero"/></svg>
